X: 152
T:Joy Street Jig
% Nottingham Music Database
S:Ralph Page, via Phil Rowe
M:6/8
K:A
E|"A"A2B c2d|"A"ea2 "D"g2f|"A"e2c cBc|"Bm"d2c "E7"B2E|
"A"A2B c2d|"A"ea2 "D"g2f |"A"edc "E7"dcB|"A"A3 -A2:: B/2A/2|
"E"GFG "E7"EFG|"A"Ace aec|"E"B^AB EFG|"B7"AGF "E"E2A|
"E"GFG "E7"EFG|"A"Ace aec|"E"B^AB "E7"EFG|"A"AcB A2:|<end>
<start>
